X: 715
T: Ey Kaşı Keman
C: Dede Efendi
O: Turkey
F: http://compmusic.upf.edu/node/140
N: ferahfeza--sarki--firengifer--ey_kasi--dede_efendi
N: makam= ferahfeza
N: form= sarki
N: usul= firengifer = 28/4
M: 28/4
L: 1/16
K: C _B   
Q: 1/4=78
%%MIDI tuningsystem comma53
f6e2 g3f e2f2  | e2f2 e2d2 e2d2 e2c2  | \
w:  Ey  *  ka  |  *  *  *  *  şı  *  *  ke  | 
d6e2 d2e2 d2c2  | c3_1/4B c2d2 c4 d3e  | 
w:  man   |  *  *  tîr_  | 
d2c4_1/4B2 d2cB ^f2_7/8ed  | d2c4_2/4B2 B2A6  | \
w:  *  *  *  i  *  *  *  mü  |  jen   | 
c3B A8 z4  | g3f e2g2 e4 f2f2  | 
w:   |  ca  | 
f4 e4 g2fg f2ef  | e2d2 e2f2 e2f2 e4  | \
w:  *  *  nı *  *  ma   |  ge   | 
d2z2 d2e2 f4 g2a2  | 
w:  *  geç  | 
g2f2 e2d2 g3f e2d2  | c4 d8 z4  | d2e2 f2g2 e2f2 g2a2  | \
w:   |  ti    |  Ah   | 
a3g f2a2 g3f f3e  | 
w:  ya  *  *  *  la   | 
e3d d2e2 d2c4_1/4B2  | _1/4B3A c3B B2^3/4AB cdcB  | \
w:  *  *  *  *  *  ya   |  la   | 
_1/4B4 B2c2 d3c e3d  | 
w:  *  ye  le  lel  *  lel   | 
{e}d2c4_2/4B2 {c}B2A6  | c3_2/4B A4 A2_B2 c2_7/8e2  | \
w:  *  lel  *  *  *  lel   |  li   | 
d2c2 B2A2 A2B2 A2G2  | A3G F2G2 A2B2 A2B2  | 
w:   |  ca  | 
A2B2 G2c2 c2Bc B2AB  | z2A4G2 A3G F2G2  | \
w:  *  *  *  *  nı *  *  ma   |  ge   | 
F4 E2F2 G4 {B}A2G2  | 
w:  *  ge   | 
F2E2 D4 G2F2 E2D2  | ^C4 D8 a3g  | g3f e2g2 f6z2  | \
w:  *  *  *  geç  |  ti  *  hey   |  ca *  *  *  nım    | 
f6e2 g3f e2f2  | 
w:  Ey  *  ka  | 
e2f2 e2d2 e2d2 e2c2  | d6e2 d2e2 d2c2  | \
w:  *  *  *  *  şı  *  *  ke  |  man   | 
c3_1/4B c2d2 c4 d3e  | 
w:  *  *  tîr_  | 
d2c4_1/4B2 d2cB ^f2_7/8ed  | d2c4_2/4B2 B2A6  | \
w:  *  *  *  i  *  *  *  mü  |  jen   | 
c3B A8 z4  | g3f e2g2 e4 f2f2  | 
w:   |  ca  | 
f4 e4 g2fg f2ef  | e2d2 e2f2 e2f2 e4  | \
w:  *  *  nı *  *  ma   |  ge   | 
d2z2 d2e2 f4 g2a2  | 
w:  *  geç  | 
g2f2 e2d2 g3f e2d2  | c4 d8 z4  | d2e2 f2g2 e2f2 g2a2  | \
w:   |  ti    |  Ah   | 
a3g f2a2 g3f f3e  | 
w:  ya  *  *  *  la   | 
e3d d2e2 d2c4_1/4B2  | _1/4B3A c3B B2^3/4AB cdcB  | \
w:  *  *  *  *  *  ya   |  la   | 
_1/4B4 B2c2 d3c e3d  | 
w:  *  ye  le  lel  *  lel   | 
{e}d2c4_2/4B2 {c}B2A6  | c3_2/4B A4 A2_B2 c2_7/8e2  | \
w:  *  lel  *  *  *  lel   |  li   | 
d2c2 B2A2 A2B2 A2G2  | A3G F2G2 A2B2 A2B2  | 
w:   |  ca  | 
A2B2 G2c2 c2Bc B2AB  | z2A4G2 A3G F2G2  | \
w:  *  *  *  *  nı *  *  ma   |  ge   | 
F4 E2F2 G4 {B}A2G2  | 
w:  *  ge   | 
F2E2 D4 G2F2 E2D2  | ^C4 D8 d4  | d3c _1/4B2c2 d6z2  | \
w:  *  *  *  geç  |  ti  *  hey   |  ca *  *  *  nım    | 
d3c _1/4B2c2 d2_7/8e2 d2e2  | 
w:  Bu  *  *  *  geç   | 
d2_7/8e2 d2c2 a2g4^f=e  | g^f_7/8e4{f}ed d8  | \
w:  *  *  *  *  ni *  ge  |  he   | 
z4 d2_7/8e2 ^f2g2 ab3  | 
w:  sabr_  | 
ag^f_7/8e d3e gfed c2f2  | _7/8e2d2 c4 _1/4B2c2 d2{e}dc  | \
w:  *  *  *  *  *  *  ü  *  *  *  *  te  |  ham  | 
_1/4B2c6 z8  | 
w:   | 
g4 a4 a2c'2 _1/4b2a2  | g2f2 e4 e4 e2d2  | \
w:  mül   |  *  *  *  ni ce   | 
_7/8e3d c4 c6{d}c_1/4B  | _1/4B2z2 B2c2 d4 {e}d2e2  | 
w:  mü   |  *  müm  | 
_1/4B4 {c}B2c2 B4 A4  | G4 A8 d4  | d3c _1/4B2d2 c2d2 c2B2  | \
w:   |  kün    |  Ah   | 
c3_1/4B A2Bc B4 c4  | 
w:  ya  *  *  *  *  la   | 
c4 _1/4B4 z2B6  | _1/4B6AG G8  | G2z2 _1/4B2c2 d3c e3d  | \
w:  *  *  ya   |  la   |  *  ye  le  lel  *  lel   | 
edc4_1/4B2 B2A6  | 
w:  lel  *  *  *  lel   | 
c3_1/4B A4 A2B2 c2_7/8e2  | d2c2 B2A2 A2B2 A2G2  | \
w:  li   |   | 
A3G F2G2 A2B2 A2B2  | 
w:  mül   | 
A2B2 G2c2 c2Bc B2AB  | z2A4G2 A3G F2G2  | \
w:  *  *  *  *  ni *  *  ce   |  mü   | 
F2z2 E2F2 G4 {B}A2G2  | 
w:  *  mü   | 
F2E2 D4 G2F2 E2D2  | ^C4 D8 a3g  | g3f e2g2 f6z2  | \
w:  *  *  *  müm  |  kün  *  hey   |  ca *  *  *  nım    | 
f6e2 {a}g3f e2f2  | 
w:  Ev *  *  vel   | 
e2f2 e2d2 e2d2 e2c2  | d6e2 d2e2 d2c2  | \
w:  *  *  *  *  na *  za  |  rın   | 
c3_1/4B c2d2 c4 de3  | 
w:  *  *  sî  | 
d2c4_1/4B2 d2cB ^f2_7/8ed  | d2c4_1/4B2 B2A6  | \
w:  *  *  *  ne  *  *  i   |  sû  | 
c3_1/4B A4 z8  | g3f e2g2 e4 f2f2  | 
w:   |  zâ  | 
f4 e4 g2fg f2ef  | e2d2 e2f2 e2f2 e4  | \
w:  *  *  nı *  *  ma   |  ge   | 
d2z2 d2e2 f4 g2a2  | 
w:  *  geç  | 
g2f2 e2d2 {a}g3f e2d2  | c4 d8 z4  | \
w:   |  ti    | 
d2e2 f2g2 e2f2 g2a2  | a3g f2a2 g3f f3e  | 
w:  Ah   |  ya  *  *  *  la   | 
e3d d2e2 d2c4_1/4B2  | _1/4B3A c3B B2AB cdcB  | \
w:  *  *  *  *  *  ya   |  la   | 
_1/4B2z2 B2c2 d3c e3d  | 
w:  *  ye  le  lel  *  lel   | 
edc4_1/4B2 B2A6  | c3_1/4B A4 A2_B2 c2_e2  | \
w:  lel  *  *  *  lel   |  li   | 
d2c2 B2A2 A2B2 A2G2  | 
w:   | 
A3G F2G2 A2B2 A2B2  | A2B2 G2c2 c2Bc B2AB  | \
w:  sû *  *  *  zâ  |  *  *  *  *  nı *  *  ma   | 
z2A4G2 A3G F2G2  | 
w:  ge   | 
F2z2 D2F2 G4 {B}A2G2  | F2E2 D4 G2F2 E2D2  | \
w:  *  ge   |  *  *  *  geç  | 
^C4 D8-D2z2  | |


